flaticon/arrows/forward-1.svg

<svg xmlns="http://www.w3.org/2000/svg" width="32" height="32" viewBox="0 0 24 24">
    <path d="M 15.363281 19.15625 L 1.246094 19.15625 C 0.558594 19.15625 0 18.597656 0 17.914062 L 0 6.085938 C 0 5.402344 0.558594 4.84375 1.246094 4.84375 L 15.363281 4.84375 C 15.644531 4.84375 15.921875 4.9375 16.140625 5.113281 L 23.53125 11.027344 C 23.828125 11.265625 24 11.621094 24 12 C 24 12.378906 23.828125 12.734375 23.53125 12.972656 L 16.140625 18.886719 C 15.921875 19.0625 15.644531 19.15625 15.363281 19.15625 Z M 1.246094 5.683594 C 1.023438 5.683594 0.84375 5.867188 0.84375 6.085938 L 0.84375 17.914062 C 0.84375 18.132812 1.023438 18.316406 1.246094 18.316406 L 15.363281 18.316406 C 15.453125 18.316406 15.542969 18.285156 15.613281 18.226562 L 23.007812 12.3125 C 23.101562 12.238281 23.15625 12.121094 23.15625 12 C 23.15625 11.878906 23.101562 11.761719 23.007812 11.6875 L 15.613281 5.773438 C 15.542969 5.714844 15.453125 5.683594 15.363281 5.683594 Z M 1.246094 5.683594"/>
</svg>

<svg xmlns="http://www.w3.org/2000/svg" width="32" height="32" viewBox="0 0 24 24">
    <path d="M15.363 19.156H1.246A1.246 1.246 0 0 1 0 17.914V6.086c0-.684.559-1.242 1.246-1.242h14.117c.282 0 .559.093.778.27l7.39 5.913a1.245 1.245 0 0 1 0 1.946l-7.39 5.914c-.22.175-.496.27-.778.27zM1.246 5.684a.404.404 0 0 0-.402.402v11.828c0 .219.18.402.402.402h14.117c.09 0 .18-.03.25-.09l7.395-5.913a.4.4 0 0 0 .148-.313.4.4 0 0 0-.148-.313l-7.395-5.914a.393.393 0 0 0-.25-.09zm0 0"/>
</svg>
